libs/icons/src/svg/settings-outline.svg

<svg width="16" height="16" viewBox="0 0 16 16" fill="none" xmlns="http://www.w3.org/2000/svg">
<g clip-path="url(#clip0_3_1700)">
<path fill-rule="evenodd" clip-rule="evenodd" d="M8 0C6.89514 0 6 0.895144 6 2V2.34838C5.80088 2.41875 5.60658 2.49926 5.41759 2.58945L5.1714 2.34326C4.39039 1.56225 3.12428 1.56225 2.34326 2.34326C1.56225 3.12428 1.56225 4.39039 2.34326 5.1714L2.58945 5.41759C2.49926 5.60658 2.41875 5.80088 2.34838 6H2C0.896027 6 0 6.89493 0 8C0 9.10486 0.895144 10 2 10H2.34838C2.41875 10.1991 2.49926 10.3934 2.58945 10.5824L2.34326 10.8286C1.56225 11.6096 1.56225 12.8757 2.34326 13.6567C3.12428 14.4378 4.39039 14.4378 5.1714 13.6567L5.4175 13.4106C5.6065 13.5008 5.80088 13.5813 6 13.6517V14C6 15.104 6.89493 16 8 16C9.10486 16 10 15.1049 10 14V13.6516C10.1991 13.5813 10.3934 13.5007 10.5824 13.4105L10.8286 13.6567C11.6096 14.4378 12.8757 14.4378 13.6567 13.6567C14.4378 12.8757 14.4378 11.6096 13.6567 10.8286L13.4106 10.5825C13.5008 10.3935 13.5813 10.1991 13.6517 10H14C15.104 10 16 9.10507 16 8C16 6.89514 15.1049 6 14 6H13.6516C13.5813 5.80088 13.5007 5.60658 13.4105 5.41759L13.6567 5.1714C14.4378 4.39039 14.4378 3.12428 13.6567 2.34326C12.8757 1.56225 11.6096 1.56225 10.8286 2.34326L10.5824 2.58945C10.3934 2.49926 10.1991 2.41875 10 2.34838V2C10 0.896027 9.10507 0 8 0ZM7.33333 2C7.33333 1.63152 7.63152 1.33333 8 1.33333C8.36826 1.33333 8.66667 1.63197 8.66667 2V2.84133C8.66667 3.14533 8.87232 3.41083 9.16667 3.48683C9.59385 3.59713 9.99603 3.76503 10.3667 3.98361C10.6286 4.13802 10.9618 4.0957 11.1767 3.88074L11.7714 3.28607C12.0317 3.02575 12.4536 3.02575 12.7139 3.28607C12.9742 3.54639 12.9742 3.96828 12.7139 4.2286L12.1193 4.82326C11.9043 5.03823 11.862 5.3714 12.0164 5.63327C12.235 6.00398 12.4029 6.40615 12.5132 6.83333C12.5892 7.12768 12.8547 7.33333 13.1587 7.33333H14C14.3685 7.33333 14.6667 7.63152 14.6667 8C14.6667 8.36826 14.368 8.66667 14 8.66667H13.1587C12.8547 8.66667 12.5892 8.87232 12.5132 9.16667C12.4028 9.59411 12.2349 9.99677 12.0166 10.3663C11.8619 10.6283 11.9042 10.9617 12.1193 11.1767L12.7139 11.7714C12.9742 12.0317 12.9742 12.4536 12.7139 12.7139C12.4536 12.9742 12.0317 12.9742 11.7714 12.7139L11.1767 12.1193C10.9618 11.9043 10.6286 11.862 10.3667 12.0164C9.99602 12.235 9.59385 12.4029 9.16667 12.5132C8.87232 12.5892 8.66667 12.8547 8.66667 13.1587V14C8.66667 14.3685 8.36848 14.6667 8 14.6667C7.63174 14.6667 7.33333 14.368 7.33333 14V13.1587C7.33333 12.8547 7.12768 12.5892 6.83333 12.5132C6.40589 12.4028 6.00323 12.2349 5.63367 12.0166C5.37175 11.8619 5.03835 11.9042 4.82326 12.1193L4.2286 12.7139C3.96828 12.9742 3.54639 12.9742 3.28607 12.7139C3.02575 12.4536 3.02575 12.0317 3.28607 11.7714L3.88074 11.1767C4.0957 10.9618 4.13802 10.6286 3.98361 10.3667C3.76503 9.99603 3.59713 9.59385 3.48683 9.16667C3.41083 8.87232 3.14533 8.66667 2.84133 8.66667H2C1.63152 8.66667 1.33333 8.36848 1.33333 8C1.33333 7.63174 1.63197 7.33333 2 7.33333H2.84133C3.14533 7.33333 3.41083 7.12768 3.48683 6.83333C3.59713 6.40615 3.76503 6.00398 3.98361 5.63327C4.13802 5.3714 4.0957 5.03823 3.88074 4.82326L3.28607 4.2286C3.02575 3.96828 3.02575 3.54639 3.28607 3.28607C3.54639 3.02575 3.96828 3.02575 4.2286 3.28607L4.82326 3.88074C5.03823 4.0957 5.3714 4.13802 5.63327 3.98361C6.00398 3.76503 6.40615 3.59713 6.83333 3.48683C7.12768 3.41083 7.33333 3.14533 7.33333 2.84133V2ZM6.66667 7.99999C6.66667 7.26361 7.26362 6.66666 8 6.66666C8.73638 6.66666 9.33334 7.26361 9.33334 7.99999C9.33334 8.73637 8.73638 9.33333 8 9.33333C7.26362 9.33333 6.66667 8.73637 6.66667 7.99999ZM8 5.33333C6.52724 5.33333 5.33334 6.52723 5.33334 7.99999C5.33334 9.47275 6.52724 10.6667 8 10.6667C9.47276 10.6667 10.6667 9.47275 10.6667 7.99999C10.6667 6.52723 9.47276 5.33333 8 5.33333Z" fill="#202327"/>
</g>
<defs>
<clipPath id="clip0_3_1700">
<rect width="16" height="16" fill="white"/>
</clipPath>
</defs>
</svg>

<svg xmlns="http://www.w3.org/2000/svg" viewBox="0 0 16 16" class="sageicon"><path fill-rule="evenodd" d="M8 0a2 2 0 0 0-2 2v.348c-.2.07-.393.151-.582.241l-.247-.246a2 2 0 1 0-2.828 2.828l.246.247c-.09.189-.17.383-.24.582H2a2 2 0 0 0 0 4h.348c.07.2.151.393.241.582l-.246.247a2 2 0 1 0 2.828 2.828l.247-.246c.188.09.383.17.582.24V14a2 2 0 0 0 4 0v-.348c.2-.07.393-.151.582-.241l.247.246a2 2 0 1 0 2.828-2.828l-.246-.247c.09-.189.17-.383.24-.582H14a2 2 0 0 0 0-4h-.348c-.07-.2-.151-.393-.241-.582l.246-.247a2 2 0 1 0-2.828-2.828l-.247.246A5.976 5.976 0 0 0 10 2.35V2a2 2 0 0 0-2-2Zm-.667 2a.666.666 0 1 1 1.334 0v.841c0 .304.205.57.5.646.427.11.829.278 1.2.497a.667.667 0 0 0 .81-.103l.594-.595a.666.666 0 1 1 .943.943l-.595.594a.667.667 0 0 0-.103.81c.219.371.387.773.497 1.2.076.295.342.5.646.5H14a.666.666 0 1 1 0 1.334h-.841a.667.667 0 0 0-.646.5c-.11.427-.278.83-.496 1.2a.667.667 0 0 0 .102.81l.595.594a.666.666 0 1 1-.943.943l-.594-.595a.667.667 0 0 0-.81-.103c-.371.219-.773.387-1.2.497a.667.667 0 0 0-.5.646V14a.666.666 0 1 1-1.334 0v-.841a.667.667 0 0 0-.5-.646 4.635 4.635 0 0 1-1.2-.496.667.667 0 0 0-.81.102l-.594.595a.666.666 0 1 1-.943-.943l.595-.594a.667.667 0 0 0 .103-.81 4.644 4.644 0 0 1-.497-1.2.667.667 0 0 0-.646-.5H2a.666.666 0 1 1 0-1.334h.841c.304 0 .57-.205.646-.5.11-.427.278-.829.497-1.2a.667.667 0 0 0-.103-.81l-.595-.594a.666.666 0 1 1 .943-.943l.594.595a.667.667 0 0 0 .81.103c.371-.219.773-.387 1.2-.497a.667.667 0 0 0 .5-.646V2Zm-.666 6a1.333 1.333 0 1 1 2.666 0 1.333 1.333 0 0 1-2.666 0ZM8 5.333a2.667 2.667 0 1 0 0 5.334 2.667 2.667 0 0 0 0-5.334Z"/></svg>
